;FLAVOR:Marlin
;TIME:8133
;Filament used: 6.91209m
;Layer height: 0.21875
;MINX:10.73
;MINY:10.73
;MINZ:0.306
;MAXX:109.269
;MAXY:109.269
;MAXZ:10.337
;Generated with Cura_SteamEngine 4.8.0
M140 S55
M105
M190 S55
M104 S220
M105
M109 S220
M82 ;absolute extrusion mode
G21;(metric values)
G90;(absolute positioning)
M82;(set extruder to absolute mode)
M107;(start with the fan off)
G28;(Home the printer)
G92 E0;(Reset the extruder to 0)
G0 Z5 E5 F500;(Move up and prime the nozzle)
G0 X-1 Z0;(Move outside the printable area)
G1 Y60 E8 F500;(Draw a priming/wiping line to the rear)
G1 X-1;(Move a little closer to the print area)
G1 Y10 E16 F500;(draw more priming/wiping)
G1 E15 F250;(Small retract)
G92 E0;(Zero the extruder)
G92 E0
G92 E0
G1 F2400 E-2.5
;LAYER_COUNT:43
;LAYER:-5
M107
G0 F7200 X25.191 Y25.447 Z0.306
;TYPE:SUPPORT-INTERFACE
G1 F2400 E0
G1 F1125 X25.447 Y25.191 E0.03685
G1 X27.972 Y22.855 E0.38694
G1 X28.225 Y22.638 E0.42086
G1 X28.327 Y22.554 E0.43431
G1 X30.979 Y20.463 E0.77803
G1 X31.272 Y20.248 E0.81502
G1 X31.374 Y20.177 E0.82766
G1 X34.243 Y18.261 E1.17879
G1 X34.589 Y18.052 E1.21993
G1 X37.579 Y16.378 E1.56869
G1 X37.951 Y16.191 E1.61106
G1 X41.037 Y14.769 E1.95688
G1 X41.361 Y14.634 E1.9926
G1 X44.635 Y13.423 E2.34788
G1 X44.986 Y13.308 E2.38548
G1 X45.071 Y13.282 E2.39452
G1 X48.404 Y12.344 E2.74692
G1 X48.678 Y12.278 E2.7756
G1 X48.784 Y12.255 E2.78664
G1 X52.091 Y11.597 E3.12981
G1 X52.185 Y11.58 E3.13954
G1 X52.555 Y11.523 E3.17764
G1 X55.881 Y11.13 E3.5185
G1 X56.038 Y11.115 E3.53455
G1 X56.395 Y11.088 E3.57099
G1 X59.864 Y10.954 E3.92431
G1 X60.136 Y10.954 E3.952
G1 X60.237 Y10.956 E3.96228
G1 X63.605 Y11.088 E4.30532
G1 X63.962 Y11.115 E4.34176
G1 X64.119 Y11.13 E4.35781
G1 X67.445 Y11.523 E4.69867
G1 X67.815 Y11.58 E4.73677
G1 X67.909 Y11.596 E4.74648
G1 X71.216 Y12.255 E5.08967
G1 X71.322 Y12.278 E5.10071
G1 X71.588 Y12.342 E5.12855
G1 X71.679 Y12.366 E5.13813
G1 X74.929 Y13.282 E5.48179
G1 X75.313 Y13.405 E5.52283
G1 X78.529 Y14.592 E5.87172
G1 X78.629 Y14.63 E5.88261
G1 X78.963 Y14.768 E5.91939
G1 X82.049 Y16.191 E6.26526
G1 X82.421 Y16.378 E6.30763
G1 X85.411 Y18.052 E6.65639
G1 X85.533 Y18.124 E6.67081
G1 X85.817 Y18.3 E6.70481
G1 X88.62 Y20.173 E7.04792
G1 X88.721 Y20.243 E7.06042
G1 X89.021 Y20.463 E7.09829
G1 X91.667 Y22.549 E7.44121
G1 X91.769 Y22.633 E7.45466
G1 X92.028 Y22.855 E7.48938
G1 X94.553 Y25.191 E7.83947
G1 X94.809 Y25.447 E7.87632
G1 X97.145 Y27.972 E8.22641
G1 X97.362 Y28.225 E8.26033
G1 X97.446 Y28.327 E8.27378
G1 X99.537 Y30.979 E8.6175
G1 X99.752 Y31.272 E8.65448
G1 X99.823 Y31.374 E8.66713
G1 X101.739 Y34.243 E9.01826
G1 X101.948 Y34.589 E9.0594
G1 X103.622 Y37.579 E9.40815
G1 X103.806 Y37.944 E9.44976
G1 X105.237 Y41.05 E9.79781
G1 X105.366 Y41.361 E9.83208
G1 X106.574 Y44.626 E10.18639
G1 X106.691 Y44.984 E10.22472
G1 X106.725 Y45.096 E10.23663
G1 X107.656 Y48.404 E10.58639
G1 X107.714 Y48.643 E10.61142
G1 X107.745 Y48.785 E10.62621
G1 X108.403 Y52.091 E10.96928
G1 X108.42 Y52.185 E10.97901
G1 X108.468 Y52.489 E11.01033
G1 X108.48 Y52.578 E11.01947
G1 X108.869 Y55.869 E11.35674
G1 X108.887 Y56.054 E11.37566
G1 X108.904 Y56.254 E11.39609
G1 X109.044 Y59.754 E11.75259
G1 X109.046 Y59.857 E11.76308
G1 X109.046 Y60.136 E11.79147
G1 X109.044 Y60.237 E11.80175
G1 X108.912 Y63.605 E12.1448
G1 X108.888 Y63.938 E12.17878
G1 X108.871 Y64.111 E12.19647
G1 X108.481 Y67.415 E12.53507
G1 X108.42 Y67.815 E12.57625
G1 X108.404 Y67.909 E12.58596
G1 X107.745 Y71.216 E12.92915
G1 X107.722 Y71.322 E12.94019
G1 X107.636 Y71.672 E12.97687
G1 X106.727 Y74.897 E13.31789
G1 X106.692 Y75.013 E13.33022
G1 X106.577 Y75.365 E13.36791
G1 X105.37 Y78.629 E13.72209
G1 X105.238 Y78.948 E13.75723
G1 X103.809 Y82.049 E14.10473
G1 X103.628 Y82.41 E14.14583
G1 X101.948 Y85.411 E14.49586
G1 X101.879 Y85.528 E14.50969
G1 X101.7 Y85.817 E14.54429
G1 X99.827 Y88.62 E14.88739
G1 X99.757 Y88.721 E14.8999
G1 X99.537 Y89.021 E14.93776
G1 X97.452 Y91.666 E15.28054
G1 X97.22 Y91.941 E15.31716
G1 X97.144 Y92.027 E15.32884
G1 X94.82 Y94.542 E15.67736
G1 X94.553 Y94.809 E15.71579
G1 X92.027 Y97.144 E16.06589
G1 X91.775 Y97.362 E16.0998
G1 X91.673 Y97.446 E16.11325
G1 X89.021 Y99.537 E16.45696
G1 X88.728 Y99.752 E16.49395
G1 X88.626 Y99.823 E16.5066
G1 X85.757 Y101.739 E16.85772
G1 X85.411 Y101.948 E16.89886
G1 X82.421 Y103.622 E17.24762
G1 X82.061 Y103.804 E17.28868
G1 X78.963 Y105.231 E17.63582
G1 X78.629 Y105.37 E17.67264
G1 X78.542 Y105.404 E17.68215
G1 X75.319 Y106.593 E18.03178
G1 X74.929 Y106.718 E18.07346
G1 X71.596 Y107.656 E18.42586
G1 X71.322 Y107.722 E18.45454
G1 X71.216 Y107.745 E18.46558
G1 X67.909 Y108.403 E18.80875
G1 X67.815 Y108.42 E18.81847
G1 X67.445 Y108.477 E18.85658
G1 X64.119 Y108.87 E19.19744
G1 X63.962 Y108.885 E19.21349
G1 X63.605 Y108.912 E19.24993
G1 X60.136 Y109.046 E19.60325
G1 X59.864 Y109.046 E19.63093
G1 X59.763 Y109.044 E19.64122
G1 X56.395 Y108.912 E19.98426
G1 X56.038 Y108.885 E20.0207
G1 X55.881 Y108.87 E20.03675
G1 X52.555 Y108.477 E20.37761
G1 X52.185 Y108.42 E20.41571
G1 X52.091 Y108.404 E20.42542
G1 X48.784 Y107.745 E20.76861
G1 X48.678 Y107.722 E20.77965
G1 X48.404 Y107.656 E20.80833
G1 X45.071 Y106.718 E21.16073
G1 X44.681 Y106.593 E21.20241
G1 X41.458 Y105.404 E21.55204
G1 X41.371 Y105.37 E21.56155
G1 X41.037 Y105.232 E21.59833
G1 X37.939 Y103.803 E21.94556
G1 X37.579 Y103.622 E21.98657
G1 X34.589 Y101.948 E22.33533
G1 X34.467 Y101.876 E22.34975
G1 X34.183 Y101.7 E22.38375
G1 X31.374 Y99.823 E22.72759
G1 X31.272 Y99.752 E22.74024
G1 X30.979 Y99.537 E22.77723
G1 X28.327 Y97.446 E23.12094
G1 X28.225 Y97.362 E23.13439
G1 X27.973 Y97.144 E23.1683
G1 X25.447 Y94.809 E23.5184
G1 X25.18 Y94.542 E23.55683
G1 X22.855 Y92.028 E23.90534
G1 X22.623 Y91.756 E23.94173
G1 X22.548 Y91.666 E23.95365
G1 X20.463 Y89.021 E24.29643
G1 X20.243 Y88.721 E24.33429
G1 X20.173 Y88.62 E24.3468
G1 X18.261 Y85.757 E24.69719
G1 X18.052 Y85.411 E24.73833
G1 X16.372 Y82.41 E25.08836
G1 X16.191 Y82.049 E25.12946
G1 X14.754 Y78.929 E25.47907
G1 X14.63 Y78.629 E25.51211
G1 X13.423 Y75.365 E25.86629
G1 X13.308 Y75.013 E25.90398
G1 X13.273 Y74.897 E25.91631
G1 X12.364 Y71.672 E26.25732
G1 X12.278 Y71.322 E26.29401
G1 X12.255 Y71.216 E26.30505
G1 X11.597 Y67.909 E26.64822
G1 X11.58 Y67.815 E26.65794
G1 X11.519 Y67.415 E26.69912
G1 X11.129 Y64.111 E27.03772
G1 X11.112 Y63.938 E27.05541
G1 X11.088 Y63.605 E27.08939
G1 X10.954 Y60.143 E27.44201
G1 X10.954 Y59.864 E27.4704
G1 X10.956 Y59.763 E27.48068
G1 X11.088 Y56.395 E27.82373
G1 X11.097 Y56.254 E27.83811
G1 X11.112 Y56.061 E27.85781
G1 X11.13 Y55.877 E27.87663
G1 X11.519 Y52.585 E28.214
G1 X11.58 Y52.185 E28.25518
G1 X11.596 Y52.091 E28.26489
G1 X12.255 Y48.785 E28.60798
G1 X12.284 Y48.652 E28.62183
G1 X12.364 Y48.328 E28.6558
G1 X13.273 Y45.103 E28.99682
G1 X13.309 Y44.984 E29.00947
G1 X13.423 Y44.635 E29.04684
G1 X14.63 Y41.371 E29.40102
G1 X14.763 Y41.05 E29.43638
G1 X16.191 Y37.951 E29.78366
G1 X16.372 Y37.59 E29.82476
G1 X18.052 Y34.589 E30.17479
G1 X18.124 Y34.467 E30.18921
G1 X18.3 Y34.183 E30.22322
G1 X20.173 Y31.38 E30.56632
G1 X20.243 Y31.279 E30.57883
G1 X20.463 Y30.979 E30.61669
G1 X22.549 Y28.333 E30.95961
G1 X22.633 Y28.231 E30.97306
G1 X22.855 Y27.972 E31.00778
G1 X25.014 Y25.638 E31.33137
G0 F1012.5 X25.191 Y25.447
G0 F7200 X49.935 Y49.646
G1 F1125 X49.646 Y49.935 E31.37297
G1 X49.146 Y50.475 E31.44787
G1 X48.876 Y50.792 E31.49025
G1 X48.441 Y51.346 E31.56194
G1 X48.208 Y51.667 E31.60231
G1 X47.794 Y52.285 E31.67801
G1 X47.58 Y52.633 E31.71959
G1 X47.231 Y53.255 E31.79218
G1 X47.042 Y53.627 E31.83465
G1 X46.737 Y54.289 E31.90883
G1 X46.584 Y54.661 E31.94977
G1 X46.329 Y55.352 E32.02473
G1 X46.202 Y55.741 E32.06638
G1 X46.01 Y56.422 E32.13839
G1 X45.914 Y56.82 E32.18006
G1 X45.772 Y57.535 E32.25425
G1 X45.709 Y57.938 E32.29576
G1 X45.623 Y58.664 E32.37017
G1 X45.591 Y59.069 E32.41152
G1 X45.562 Y59.795 E32.48547
G1 X45.562 Y60.201 E32.52679
G1 X45.59 Y60.916 E32.59961
G1 X45.621 Y61.322 E32.64105
G1 X45.707 Y62.052 E32.71586
G1 X45.771 Y62.462 E32.7581
G1 X45.914 Y63.181 E32.83271
G1 X46.009 Y63.573 E32.87376
G1 X46.2 Y64.253 E32.94564
G1 X46.327 Y64.644 E32.98749
G1 X46.582 Y65.337 E33.06264
G1 X46.738 Y65.713 E33.10407
G1 X47.044 Y66.376 E33.17839
G1 X47.231 Y66.745 E33.22049
G1 X47.58 Y67.367 E33.29308
G1 X47.794 Y67.715 E33.33466
G1 X48.208 Y68.333 E33.41037
G1 X48.441 Y68.654 E33.45073
G1 X48.876 Y69.208 E33.52242
G1 X49.146 Y69.525 E33.5648
G1 X49.646 Y70.065 E33.6397
G1 X49.935 Y70.354 E33.6813
G1 X50.475 Y70.854 E33.7562
G1 X50.792 Y71.124 E33.79858
G1 X51.346 Y71.559 E33.87027
G1 X51.667 Y71.792 E33.91064
G1 X52.285 Y72.206 E33.98634
G1 X52.633 Y72.42 E34.02792
G1 X53.255 Y72.769 E34.10051
G1 X53.627 Y72.958 E34.14298
G1 X54.289 Y73.263 E34.21716
G1 X54.661 Y73.416 E34.2581
G1 X55.352 Y73.671 E34.33306
G1 X55.741 Y73.798 E34.37471
G1 X56.422 Y73.99 E34.44672
G1 X56.82 Y74.086 E34.48839
G1 X57.534 Y74.228 E34.56248
G1 X57.939 Y74.292 E34.60421
G1 X58.675 Y74.379 E34.67964
G1 X59.084 Y74.41 E34.72139
G1 X59.799 Y74.438 E34.79421
G1 X60.201 Y74.438 E34.83513
G1 X60.916 Y74.41 E34.90795
G1 X61.325 Y74.379 E34.9497
G1 X62.061 Y74.292 E35.02513
G1 X62.466 Y74.228 E35.06686
G1 X63.18 Y74.086 E35.14095
G1 X63.578 Y73.99 E35.18262
G1 X64.259 Y73.798 E35.25463
G1 X64.648 Y73.671 E35.29627
G1 X65.339 Y73.416 E35.37124
G1 X65.711 Y73.263 E35.41218
G1 X66.373 Y72.958 E35.48636
G1 X66.745 Y72.769 E35.52883
G1 X67.367 Y72.42 E35.60141
G1 X67.715 Y72.206 E35.64299
G1 X68.333 Y71.792 E35.7187
G1 X68.654 Y71.559 E35.75907
G1 X69.208 Y71.124 E35.83076
G1 X69.525 Y70.854 E35.87314
G1 X70.065 Y70.354 E35.94804
G1 X70.354 Y70.065 E35.98963
G1 X70.854 Y69.525 E36.06453
G1 X71.124 Y69.208 E36.10691
G1 X71.559 Y68.654 E36.1786
G1 X71.792 Y68.333 E36.21897
G1 X72.206 Y67.715 E36.29468
G1 X72.42 Y67.367 E36.33626
G1 X72.769 Y66.745 E36.40885
G1 X72.956 Y66.376 E36.45095
G1 X73.262 Y65.713 E36.52527
G1 X73.418 Y65.337 E36.5667
G1 X73.673 Y64.644 E36.64185
G1 X73.8 Y64.253 E36.68369
G1 X73.991 Y63.573 E36.75558
G1 X74.086 Y63.181 E36.79663
G1 X74.229 Y62.462 E36.87124
G1 X74.293 Y62.052 E36.91347
G1 X74.379 Y61.322 E36.98828
G1 X74.41 Y60.916 E37.02972
G1 X74.438 Y60.201 E37.10255
G1 X74.438 Y59.795 E37.14387
G1 X74.409 Y59.069 E37.21782
G1 X74.377 Y58.664 E37.25917
G1 X74.291 Y57.938 E37.33357
G1 X74.228 Y57.535 E37.37509
G1 X74.086 Y56.82 E37.44928
G1 X73.99 Y56.422 E37.49095
G1 X73.798 Y55.741 E37.56296
G1 X73.671 Y55.352 E37.60461
G1 X73.416 Y54.661 E37.67957
G1 X73.263 Y54.289 E37.72051
G1 X72.958 Y53.627 E37.79469
G1 X72.769 Y53.255 E37.83716
G1 X72.42 Y52.633 E37.90975
G1 X72.206 Y52.285 E37.95132
G1 X71.792 Y51.667 E38.02703
G1 X71.559 Y51.346 E38.0674
G1 X71.124 Y50.792 E38.13909
G1 X70.854 Y50.475 E38.18147
G1 X70.354 Y49.935 E38.25637
G1 X70.065 Y49.646 E38.29797
G1 X69.525 Y49.146 E38.37287
G1 X69.208 Y48.876 E38.41525
G1 X68.654 Y48.441 E38.48693
G1 X68.333 Y48.208 E38.5273
G1 X67.715 Y47.794 E38.60301
G1 X67.367 Y47.58 E38.64459
G1 X66.745 Y47.231 E38.71718
G1 X66.373 Y47.042 E38.75964
G1 X65.711 Y46.737 E38.83383
G1 X65.339 Y46.584 E38.87476
G1 X64.648 Y46.329 E38.94973
G1 X64.259 Y46.202 E38.99138
G1 X63.578 Y46.01 E39.06339
G1 X63.18 Y45.914 E39.10506
G1 X62.466 Y45.772 E39.17915
G1 X62.061 Y45.708 E39.22088
G1 X61.325 Y45.621 E39.29631
G1 X60.916 Y45.59 E39.33805
G1 X60.201 Y45.562 E39.41088
G1 X59.799 Y45.562 E39.45179
G1 X59.084 Y45.59 E39.52462
G1 X58.675 Y45.621 E39.56636
G1 X57.939 Y45.708 E39.64179
G1 X57.534 Y45.772 E39.68352
G1 X56.82 Y45.914 E39.75761
G1 X56.422 Y46.01 E39.79928
G1 X55.741 Y46.202 E39.87129
G1 X55.352 Y46.329 E39.91294
G1 X54.661 Y46.584 E39.9879
G1 X54.289 Y46.737 E40.02884
G1 X53.627 Y47.042 E40.10302
G1 X53.255 Y47.231 E40.14549
G1 X52.633 Y47.58 E40.21808
G1 X52.285 Y47.794 E40.25966
G1 X51.667 Y48.208 E40.33537
G1 X51.346 Y48.441 E40.37574
G1 X50.792 Y48.876 E40.44742
G1 X50.475 Y49.146 E40.4898
G1 X50.126 Y49.469 E40.5382
G0 F1012.5 X49.935 Y49.646
G0 F7200 X49.6 Y49.985
G1 F1125 X49.6 Y12.092 E44.3948
G0 F7200 X51.2 Y11.774
G1 F1125 X51.2 Y48.556 E48.13832
G0 F7200 X52.8 Y47.487
G1 F1125 X52.8 Y11.494 E51.80155
G0 F7200 X54.4 Y11.304
G1 F1125 X54.4 Y46.692 E55.4032
G0 F7200 X56 Y46.129
G1 F1125 X56 Y11.118 E58.96648
G0 F7200 X57.6 Y11.041
G1 F1125 X57.6 Y45.762 E62.50024
G0 F7200 X59.2 Y45.586
G1 F1125 X59.2 Y10.979 E66.02241
G0 F7200 X60.8 Y10.979
G1 F1125 X60.8 Y45.585 E69.54447
G0 F7200 X62.4 Y45.761
G1 F1125 X62.4 Y11.041 E73.07813
G0 F7200 X64 Y11.119
G1 F1125 X64 Y46.128 E76.64121
G0 F7200 X65.6 Y46.691
G1 F1125 X65.6 Y11.305 E80.24265
G0 F7200 X67.2 Y11.495
G1 F1125 X67.2 Y47.486 E83.90567
G0 F7200 X68.8 Y48.555
G1 F1125 X68.8 Y11.774 E87.6491
G0 F7200 X70.4 Y12.093
G1 F1125 X70.4 Y49.984 E91.50549
G0 F7200 X72 Y51.977
G1 F1125 X72 Y12.457 E95.52768
G0 F7200 X73.6 Y12.908
G1 F1125 X73.6 Y55.159 E99.82782
G0 F7200 X73.6 Y64.842
G1 F1125 X73.6 Y107.093 E104.12796
G0 F7200 X72 Y107.543
G1 F1125 X72 Y68.022 E108.15025
G0 F7200 X70.4 Y70.015
G1 F1125 X70.4 Y107.908 E112.00684
G0 F7200 X68.8 Y108.226
G1 F1125 X68.8 Y71.444 E115.75037
G0 F7200 X67.2 Y72.513
G1 F1125 X67.2 Y108.506 E119.41359
G0 F7200 X65.6 Y108.696
G1 F1125 X65.6 Y73.308 E123.01524
G0 F7200 X64 Y73.871
G1 F1125 X64 Y108.882 E126.57852
G0 F7200 X62.4 Y108.959
G1 F1125 X62.4 Y74.238 E130.11229
G0 F7200 X60.8 Y74.414
G1 F1125 X60.8 Y109.021 E133.63445
G0 F7200 X59.2 Y109.021
G1 F1125 X59.2 Y74.415 E137.15651
G0 F7200 X57.6 Y74.239
G1 F1125 X57.6 Y108.959 E140.69017
G0 F7200 X56 Y108.881
G1 F1125 X56 Y73.872 E144.25325
G0 F7200 X54.4 Y73.309
G1 F1125 X54.4 Y108.695 E147.8547
G0 F7200 X52.8 Y108.505
G1 F1125 X52.8 Y72.514 E151.51772
G0 F7200 X51.2 Y71.445
G1 F1125 X51.2 Y108.226 E155.26114
G0 F7200 X49.6 Y107.907
G1 F1125 X49.6 Y70.016 E159.11754
G0 F7200 X48 Y68.023
G1 F1125 X48 Y107.542 E163.13962
G0 F7200 X46.4 Y107.092
G1 F1125 X46.4 Y64.843 E167.43956
G0 F7200 X46.4 Y55.16
G1 F1125 X46.4 Y12.907 E171.7399
G0 F7200 X48 Y12.457
G1 F1125 X48 Y51.978 E175.76219
G0 F7200 X19.2 Y32.836
G1 F1125 X19.2 Y87.163 E181.29137
G0 F7200 X20.8 Y89.448
G1 F1125 X20.8 Y30.551 E187.28568
G0 F7200 X22.4 Y28.522
G1 F1125 X22.4 Y91.478 E193.69309
G0 F7200 X24 Y93.266
G1 F1125 X24 Y26.734 E200.46445
G0 F7200 X25.6 Y25.049
G1 F1125 X25.6 Y94.95 E207.57869
G0 F7200 X27.2 Y96.429
G1 F1125 X27.2 Y23.569 E214.99409
G0 F7200 X28.8 Y22.181
G1 F1125 X28.8 Y97.818 E222.69213
G0 F7200 X30.4 Y99.08
G1 F1125 X30.4 Y20.919 E230.64704
G0 F7200 X32 Y19.758
G1 F1125 X32 Y100.241 E238.83828
G0 F7200 X33.6 Y101.31
G1 F1125 X33.6 Y18.69 E247.24701
G0 F7200 X35.2 Y17.709
G1 F1125 X35.2 Y102.29 E255.85533
G0 F7200 X36.8 Y103.185
G1 F1125 X36.8 Y16.814 E264.64583
G0 F7200 X38.4 Y15.984
G1 F1125 X38.4 Y104.015 E273.60527
G0 F7200 X40 Y104.753
G1 F1125 X40 Y15.246 E282.71494
G0 F7200 X41.6 Y14.545
G1 F1125 X41.6 Y105.456 E291.9675
G0 F7200 X43.2 Y106.046
G1 F1125 X43.2 Y13.953 E301.34035
G0 F7200 X44.8 Y13.368
G1 F1125 X44.8 Y106.631 E310.83229
G0 F7200 X75.2 Y106.632
G1 F1125 X75.2 Y13.369 E320.32423
G0 F7200 X76.8 Y13.954
G1 F1125 X76.8 Y106.047 E329.69709
G0 F7200 X78.4 Y105.457
G1 F1125 X78.4 Y14.545 E338.94975
G0 F7200 X80 Y15.247
G1 F1125 X80 Y104.754 E348.05941
G0 F7200 X81.6 Y104.017
G1 F1125 X81.6 Y15.984 E357.01906
G0 F7200 X83.2 Y16.815
G1 F1125 X83.2 Y103.186 E365.80956
G0 F7200 X84.8 Y102.291
G1 F1125 X84.8 Y17.71 E374.41787
G0 F7200 X86.4 Y18.69
G1 F1125 X86.4 Y101.31 E382.82661
G0 F7200 X88 Y100.242
G1 F1125 X88 Y19.759 E391.01785
G0 F7200 X89.6 Y20.92
G1 F1125 X89.6 Y99.081 E398.97276
G0 F7200 X91.2 Y97.819
G1 F1125 X91.2 Y22.181 E406.67089
G0 F7200 X92.8 Y23.57
G1 F1125 X92.8 Y96.43 E414.08629
G0 F7200 X94.4 Y94.951
G1 F1125 X94.4 Y25.05 E421.20054
G0 F7200 X96 Y26.735
G1 F1125 X96 Y93.266 E427.9718
G0 F7200 X97.6 Y91.479
G1 F1125 X97.6 Y28.523 E434.37921
G0 F7200 X99.2 Y30.552
G1 F1125 X99.2 Y89.449 E440.37351
G0 F7200 X100.8 Y87.164
G1 F1125 X100.8 Y32.837 E445.9027
G0 F7200 X102.4 Y35.397
G1 F1125 X102.4 Y84.604 E450.91079
G0 F7200 X104 Y81.635
G1 F1125 X104 Y38.366 E455.31454
G0 F7200 X105.6 Y41.994
G1 F1125 X105.6 Y78.008 E458.9799
