;FLAVOR:Marlin
;TIME:24537
;Filament used: 25.5487m
;Layer height: 0.21875
;MINX:13.899
;MINY:17.074
;MINZ:0.306
;MAXX:106.1
;MAXY:102.925
;MAXZ:57.86
;Generated with Cura_SteamEngine 4.8.0
M140 S55
M105
M190 S55
M104 S220
M105
M109 S220
M82 ;absolute extrusion mode
G21;(metric values)
G90;(absolute positioning)
M82;(set extruder to absolute mode)
M107;(start with the fan off)
G28;(Home the printer)
G92 E0;(Reset the extruder to 0)
G0 Z5 E5 F500;(Move up and prime the nozzle)
G0 X-1 Z0;(Move outside the printable area)
G1 Y60 E8 F500;(Draw a priming/wiping line to the rear)
G1 X-1;(Move a little closer to the print area)
G1 Y10 E16 F500;(draw more priming/wiping)
G1 E15 F250;(Small retract)
G92 E0;(Zero the extruder)
G92 E0
G92 E0
G1 F2400 E-2.5
;LAYER_COUNT:260
;LAYER:-5
M107
G0 F7200 X15.706 Y18.44 Z0.306
;TYPE:SUPPORT-INTERFACE
G1 F2400 E0
G1 F1125 X15.936 Y18.252 E0.03023
G1 X16.164 Y18.088 E0.05882
G1 X16.423 Y17.926 E0.08991
G1 X16.662 Y17.798 E0.1175
G1 X16.937 Y17.671 E0.14833
G1 X17.198 Y17.569 E0.17685
G1 X17.501 Y17.474 E0.20917
G1 X17.722 Y17.42 E0.23232
G1 X18.078 Y17.36 E0.26907
G1 X18.632 Y17.31 E0.32568
G1 X18.854 Y17.3 E0.3483
G1 X101.199 Y17.3 E8.72904
G1 X101.325 Y17.304 E8.74187
G1 X101.702 Y17.328 E8.78032
G1 X102 Y17.365 E8.81088
G1 X102.284 Y17.42 E8.84032
G1 X102.575 Y17.496 E8.87093
G1 X102.833 Y17.58 E8.89855
G1 X103.112 Y17.691 E8.92911
G1 X103.37 Y17.813 E8.95816
G1 X103.628 Y17.956 E8.98818
G1 X103.867 Y18.108 E9.017
G1 X104.114 Y18.29 E9.04823
G1 X104.315 Y18.459 E9.07496
G1 X104.548 Y18.679 E9.10757
G1 X104.735 Y18.881 E9.13559
G1 X104.923 Y19.111 E9.16582
G1 X105.087 Y19.339 E9.19441
G1 X105.249 Y19.598 E9.2255
G1 X105.377 Y19.837 E9.25309
G1 X105.504 Y20.112 E9.28392
G1 X105.606 Y20.373 E9.31244
G1 X105.701 Y20.676 E9.34476
G1 X105.755 Y20.897 E9.36791
G1 X105.815 Y21.253 E9.40466
G1 X105.865 Y21.807 E9.46127
G1 X105.875 Y22.029 E9.48389
G1 X105.875 Y98.024 E17.21835
G1 X105.871 Y98.15 E17.23118
G1 X105.847 Y98.527 E17.26963
G1 X105.81 Y98.825 E17.30019
G1 X105.755 Y99.109 E17.32963
G1 X105.679 Y99.4 E17.36025
G1 X105.595 Y99.658 E17.38786
G1 X105.484 Y99.937 E17.41842
G1 X105.362 Y100.195 E17.44747
G1 X105.219 Y100.453 E17.47749
G1 X105.067 Y100.692 E17.50632
G1 X104.894 Y100.927 E17.53601
G1 X104.713 Y101.144 E17.56477
G1 X104.499 Y101.37 E17.59645
G1 X104.294 Y101.56 E17.6249
G1 X104.064 Y101.748 E17.65513
G1 X103.836 Y101.912 E17.68372
G1 X103.577 Y102.074 E17.71481
G1 X103.338 Y102.202 E17.7424
G1 X103.063 Y102.329 E17.77323
G1 X102.802 Y102.431 E17.80175
G1 X102.499 Y102.526 E17.83407
G1 X102.278 Y102.58 E17.85722
G1 X101.922 Y102.64 E17.89397
G1 X101.368 Y102.69 E17.95058
G1 X101.146 Y102.7 E17.9732
G1 X18.801 Y102.7 E26.35394
G1 X18.675 Y102.696 E26.36677
G1 X18.298 Y102.672 E26.40522
G1 X18 Y102.635 E26.43578
G1 X17.716 Y102.58 E26.46522
G1 X17.425 Y102.504 E26.49583
G1 X17.165 Y102.419 E26.52367
G1 X16.888 Y102.309 E26.55401
G1 X16.629 Y102.186 E26.58319
G1 X16.372 Y102.044 E26.61307
G1 X16.133 Y101.892 E26.6419
G1 X15.886 Y101.71 E26.67312
G1 X15.685 Y101.541 E26.69985
G1 X15.452 Y101.321 E26.73247
G1 X15.265 Y101.119 E26.76048
G1 X15.073 Y100.884 E26.79137
G1 X14.913 Y100.661 E26.8193
G1 X14.751 Y100.402 E26.85039
G1 X14.623 Y100.163 E26.87799
G1 X14.496 Y99.888 E26.90881
G1 X14.394 Y99.627 E26.93733
G1 X14.299 Y99.324 E26.96965
G1 X14.243 Y99.095 E26.99365
G1 X14.185 Y98.747 E27.02955
G1 X14.135 Y98.193 E27.08617
G1 X14.125 Y97.971 E27.10878
G1 X14.125 Y21.976 E34.84325
G1 X14.129 Y21.85 E34.85608
G1 X14.153 Y21.473 E34.89453
G1 X14.19 Y21.175 E34.92509
G1 X14.245 Y20.891 E34.95453
G1 X14.321 Y20.6 E34.98514
G1 X14.405 Y20.342 E35.01276
G1 X14.516 Y20.063 E35.04332
G1 X14.638 Y19.805 E35.07236
G1 X14.784 Y19.542 E35.10298
G1 X14.933 Y19.308 E35.13121
G1 X15.115 Y19.061 E35.16244
G1 X15.284 Y18.86 E35.18917
G1 X15.504 Y18.627 E35.22178
G1 X15.515 Y18.617 E35.22329
G0 F1012.5 X15.706 Y18.44
G0 F7200 X16 Y18.205
G1 F1125 X16 Y101.794 E43.73065
G0 F7200 X17.6 Y102.549
G1 F1125 X17.6 Y17.449 E52.39179
G0 F7200 X19.2 Y17.3
G1 F1125 X19.2 Y102.7 E61.08346
G0 F7200 X20.8 Y102.7
G1 F1125 X20.8 Y17.3 E69.77513
G0 F7200 X22.4 Y17.3
G1 F1125 X22.4 Y102.7 E78.4668
G0 F7200 X24 Y102.7
G1 F1125 X24 Y17.3 E87.15847
G0 F7200 X25.6 Y17.3
G1 F1125 X25.6 Y102.7 E95.85014
G0 F7200 X27.2 Y102.7
G1 F1125 X27.2 Y17.3 E104.54182
G0 F7200 X28.8 Y17.3
G1 F1125 X28.8 Y102.7 E113.23349
G0 F7200 X30.4 Y102.7
G1 F1125 X30.4 Y17.3 E121.92516
G0 F7200 X32 Y17.3
G1 F1125 X32 Y102.7 E130.61683
G0 F7200 X33.6 Y102.7
G1 F1125 X33.6 Y17.3 E139.3085
G0 F7200 X35.2 Y17.3
G1 F1125 X35.2 Y102.7 E148.00017
G0 F7200 X36.8 Y102.7
G1 F1125 X36.8 Y17.3 E156.69185
G0 F7200 X38.4 Y17.3
G1 F1125 X38.4 Y102.7 E165.38352
G0 F7200 X40 Y102.7
G1 F1125 X40 Y17.3 E174.07519
G0 F7200 X41.6 Y17.3
G1 F1125 X41.6 Y102.7 E182.76686
G0 F7200 X43.2 Y102.7
G1 F1125 X43.2 Y17.3 E191.45853
G0 F7200 X44.8 Y17.3
G1 F1125 X44.8 Y102.7 E200.1502
G0 F7200 X46.4 Y102.7
G1 F1125 X46.4 Y17.3 E208.84187
G0 F7200 X48 Y17.3
G1 F1125 X48 Y102.7 E217.53355
G0 F7200 X49.6 Y102.7
G1 F1125 X49.6 Y17.3 E226.22522
G0 F7200 X51.2 Y17.3
G1 F1125 X51.2 Y102.7 E234.91689
G0 F7200 X52.8 Y102.7
G1 F1125 X52.8 Y17.3 E243.60856
G0 F7200 X54.4 Y17.3
G1 F1125 X54.4 Y102.7 E252.30023
G0 F7200 X56 Y102.7
G1 F1125 X56 Y17.3 E260.9919
G0 F7200 X57.6 Y17.3
G1 F1125 X57.6 Y102.7 E269.68357
G0 F7200 X59.2 Y102.7
G1 F1125 X59.2 Y17.3 E278.37525
G0 F7200 X60.8 Y17.3
G1 F1125 X60.8 Y102.7 E287.06692
G0 F7200 X62.4 Y102.7
G1 F1125 X62.4 Y17.3 E295.75859
G0 F7200 X64 Y17.3
G1 F1125 X64 Y102.7 E304.45026
G0 F7200 X65.6 Y102.7
G1 F1125 X65.6 Y17.3 E313.14193
G0 F7200 X67.2 Y17.3
G1 F1125 X67.2 Y102.7 E321.8336
G0 F7200 X68.8 Y102.7
G1 F1125 X68.8 Y17.3 E330.52528
G0 F7200 X70.4 Y17.3
G1 F1125 X70.4 Y102.7 E339.21695
G0 F7200 X72 Y102.7
G1 F1125 X72 Y17.3 E347.90862
G0 F7200 X73.6 Y17.3
G1 F1125 X73.6 Y102.7 E356.60029
G0 F7200 X75.2 Y102.7
G1 F1125 X75.2 Y17.3 E365.29196
G0 F7200 X76.8 Y17.3
G1 F1125 X76.8 Y102.7 E373.98363
G0 F7200 X78.4 Y102.7
G1 F1125 X78.4 Y17.3 E382.6753
G0 F7200 X80 Y17.3
G1 F1125 X80 Y102.7 E391.36698
G0 F7200 X81.6 Y102.7
G1 F1125 X81.6 Y17.3 E400.05865
G0 F7200 X83.2 Y17.3
G1 F1125 X83.2 Y102.7 E408.75032
G0 F7200 X84.8 Y102.7
G1 F1125 X84.8 Y17.3 E417.44199
G0 F7200 X86.4 Y17.3
G1 F1125 X86.4 Y102.7 E426.13366
G0 F7200 X88 Y102.7
G1 F1125 X88 Y17.3 E434.82533
G0 F7200 X89.6 Y17.3
G1 F1125 X89.6 Y102.7 E443.51701
G0 F7200 X91.2 Y102.7
G1 F1125 X91.2 Y17.3 E452.20868
G0 F7200 X92.8 Y17.3
G1 F1125 X92.8 Y102.7 E460.90035
G0 F7200 X94.4 Y102.7
G1 F1125 X94.4 Y17.3 E469.59202
G0 F7200 X96 Y17.3
G1 F1125 X96 Y102.7 E478.28369
G0 F7200 X97.6 Y102.7
G1 F1125 X97.6 Y17.3 E486.97536
G0 F7200 X99.2 Y17.3
G1 F1125 X99.2 Y102.7 E495.66703
G0 F7200 X100.8 Y102.7
G1 F1125 X100.8 Y17.3 E504.35871
G0 F7200 X102.4 Y17.451
G1 F1125 X102.4 Y102.551 E513.01985
G0 F7200 X104 Y101.795
G1 F1125 X104 Y18.206 E521.5272
G0 F7200 X105.6 Y20.358
G1 F1125 X105.6 Y99.643 E529.59651
G0 F7200 X14.4 Y99.642
M104 S215
G1 F1125 X14.4 Y20.357 E537.66582
G0 F600 X14.4 Y20.357 Z0.525
G0 F7200 X14.337 Y99.614
;TIME_ELAPSED:314.636022
;LAYER:-4
M140 S50
;TYPE:SUPPORT
G1 F1125 X17.206 Y102.483 E537.92442
G1 X17.413 Y102.551 E537.93831
G1 X17.71 Y102.629 E537.95788
G1 X17.999 Y102.685 E537.97664
G1 X18.29 Y102.721 E537.99533
G1 X18.673 Y102.745 E538.01978
G1 X18.743 Y102.747 E538.02425
G1 X14.079 Y98.083 E538.44464
G1 X14.074 Y97.971 E538.45178
G1 X14.074 Y96.806 E538.52603
G1 X20.017 Y102.748 E539.06166
G1 X21.29 Y102.748 E539.14279
G1 X14.074 Y95.533 E539.79316
G1 X14.074 Y94.26 E539.87429
G1 X22.563 Y102.748 E540.6394
G1 X23.835 Y102.748 E540.72047
G1 X14.074 Y92.988 E541.60023
G1 X14.074 Y91.715 E541.68136
G1 X25.108 Y102.748 E542.67586
G1 X26.381 Y102.748 E542.75699
G1 X14.074 Y90.442 E543.86623
G1 X14.074 Y89.169 E543.94737
G1 X27.654 Y102.748 E545.17135
G1 X28.927 Y102.748 E545.25249
G1 X14.074 Y87.896 E546.59121
G1 X14.074 Y86.624 E546.67228
G1 X30.199 Y102.748 E548.12565
G1 X31.472 Y102.748 E548.20679
G1 X14.074 Y85.351 E549.7749
G1 X14.074 Y84.078 E549.85604
G1 X32.745 Y102.748 E551.53889
G1 X34.018 Y102.748 E551.62003
G1 X14.074 Y82.805 E553.41763
G1 X14.074 Y81.532 E553.49876
G1 X35.29 Y102.748 E555.41105
G1 X36.563 Y102.748 E555.49219
G1 X14.074 Y80.26 E557.51918
G1 X14.074 Y78.987 E557.60031
G1 X37.836 Y102.748 E559.74204
G1 X39.109 Y102.748 E559.82318
G1 X14.074 Y77.714 E562.07965
G1 X14.074 Y76.441 E562.16079
G1 X40.382 Y102.748 E564.532
G1 X41.654 Y102.748 E564.61307
G1 X14.074 Y75.168 E567.09898
G1 X14.074 Y73.896 E567.18005
G1 X42.927 Y102.748 E569.78066
G1 X44.2 Y102.748 E569.86179
G1 X14.074 Y72.623 E572.57714
G1 X14.074 Y71.35 E572.65827
G1 X45.473 Y102.748 E575.48836
G1 X46.746 Y102.748 E575.5695
G1 X14.074 Y70.077 E578.51433
G1 X14.074 Y68.805 E578.5954
G1 X48.018 Y102.748 E581.65488
G1 X49.291 Y102.748 E581.73601
G1 X14.074 Y67.532 E584.91024
G1 X14.074 Y66.259 E584.99137
G1 X50.564 Y102.748 E588.28033
G1 X51.837 Y102.748 E588.36147
G1 X14.074 Y64.986 E591.76517
G1 X14.074 Y63.713 E591.84631
G1 X53.11 Y102.748 E595.36475
G1 X54.382 Y102.748 E595.44582
G1 X14.074 Y62.441 E599.07892
G1 X14.074 Y61.168 E599.16006
G1 X55.655 Y102.748 E602.90789
G1 X56.928 Y102.748 E602.98903
G1 X14.074 Y59.895 E606.85161
G1 X14.074 Y58.622 E606.93274
G1 X58.201 Y102.748 E610.91006
G1 X59.474 Y102.748 E610.9912
G1 X14.074 Y57.349 E615.08326
G1 X14.074 Y56.077 E615.16433
G1 X60.746 Y102.748 E619.37105
G1 X62.019 Y102.748 E619.45218
G1 X14.074 Y54.804 E623.77363
G1 X14.074 Y53.531 E623.85477
G1 X63.292 Y102.748 E628.29096
G1 X64.565 Y102.748 E628.3721
G1 X14.074 Y52.258 E632.92304
G1 X14.074 Y50.985 E633.00417
G1 X65.838 Y102.748 E637.66985
G1 X67.11 Y102.748 E637.75092
G1 X14.074 Y49.713 E642.53125
G1 X14.074 Y48.44 E642.61238
G1 X68.383 Y102.748 E647.50745
G1 X69.656 Y102.748 E647.58859
G1 X14.074 Y47.167 E652.5984
G1 X14.074 Y45.894 E652.67953
G1 X70.929 Y102.748 E657.80409
G1 X72.201 Y102.748 E657.88516
G1 X14.074 Y44.621 E663.12441
G1 X14.074 Y43.349 E663.20548
G1 X73.474 Y102.748 E668.55942
G1 X74.747 Y102.748 E668.64056
G1 X14.074 Y42.076 E674.10925
G1 X14.074 Y40.803 E674.19038
G1 X76.02 Y102.748 E679.77381
G1 X77.293 Y102.748 E679.85494
G1 X14.074 Y39.53 E685.55311
G1 X14.074 Y38.258 E685.63418
G1 X78.565 Y102.748 E691.447
G1 X79.838 Y102.748 E691.52814
G1 X14.074 Y36.985 E697.4557
G1 X14.074 Y35.712 E697.53683
G1 X81.111 Y102.748 E703.57914
G1 X82.384 Y102.748 E703.66027
G1 X14.074 Y34.439 E709.81732
G1 X14.074 Y33.166 E709.89845
G1 X83.657 Y102.748 E716.17024
G1 X84.929 Y102.748 E716.25131
G1 X14.074 Y31.894 E722.63774
G1 X14.074 Y30.621 E722.71888
G1 X86.202 Y102.748 E729.22005
G1 X87.475 Y102.748 E729.30119
G1 X14.074 Y29.348 E735.91711
G1 X14.074 Y28.075 E735.99824
G1 X88.748 Y102.748 E742.7289
G1 X90.021 Y102.748 E742.81004
G1 X14.074 Y26.802 E749.65544
G1 X14.074 Y25.53 E749.73651
G1 X91.293 Y102.748 E756.69656
G1 X92.566 Y102.748 E756.7777
G1 X14.074 Y24.257 E763.85249
G1 X14.074 Y22.984 E763.93363
G1 X93.839 Y102.748 E771.12316
G1 X95.112 Y102.748 E771.20429
G1 X14.086 Y21.723 E778.50749
G1 X14.103 Y21.464 E778.52403
G1 X14.139 Y21.176 E778.54253
G1 X14.195 Y20.884 E778.56148
G1 X14.262 Y20.626 E778.57847
G1 X96.385 Y102.748 E785.98054
G1 X97.657 Y102.748 E786.06161
G1 X14.627 Y19.719 E793.54544
G1 X14.74 Y19.517 E793.56019
G1 X14.893 Y19.278 E793.57828
G1 X15.073 Y19.033 E793.59765
G1 X15.137 Y18.956 E793.60403
G1 X98.93 Y102.748 E801.15663
G1 X100.203 Y102.748 E801.23777
G1 X15.774 Y18.32 E808.84769
G1 X15.91 Y18.207 E808.85896
G1 X16.133 Y18.048 E808.87641
G1 X16.4 Y17.881 E808.89648
G1 X16.535 Y17.808 E808.90627
G1 X101.457 Y102.729 E816.56063
G1 X101.933 Y102.687 E816.59108
G1 X102.285 Y102.628 E816.61383
G1 X102.523 Y102.57 E816.62944
G1 X102.558 Y102.558 E816.6318
G1 X17.44 Y17.44 E824.30387
G1 X17.476 Y17.429 E824.30627
G1 X17.714 Y17.37 E824.3219
G1 X18.065 Y17.312 E824.34457
G1 X18.542 Y17.269 E824.3751
G1 X103.463 Y102.19 E832.02941
G1 X103.598 Y102.117 E832.03919
G1 X103.866 Y101.951 E832.05928
G1 X104.088 Y101.79 E832.07676
G1 X104.224 Y101.679 E832.08795
G1 X19.795 Y17.249 E839.69796
G1 X21.068 Y17.249 E839.7791
G1 X104.862 Y101.044 E847.33188
G1 X104.926 Y100.967 E847.33826
G1 X105.106 Y100.72 E847.35774
G1 X105.262 Y100.476 E847.37619
G1 X105.371 Y100.28 E847.39049
G1 X22.341 Y17.249 E854.8744
G1 X23.613 Y17.249 E854.95547
G1 X105.737 Y99.373 E862.35768
G1 X105.804 Y99.115 E862.37467
G1 X105.86 Y98.823 E862.39362
G1 X105.896 Y98.535 E862.41212
G1 X105.913 Y98.276 E862.42866
G1 X24.886 Y17.249 E869.73199
G1 X26.159 Y17.249 E869.81313
G1 X105.924 Y97.015 E877.00275
G1 X105.924 Y95.742 E877.08388
G1 X27.432 Y17.249 E884.15877
G1 X28.704 Y17.249 E884.23984
G1 X105.924 Y94.469 E891.20003
G1 X105.924 Y93.196 E891.28116
G1 X29.977 Y17.249 E898.12661
G1 X31.25 Y17.249 E898.20774
G1 X105.924 Y91.923 E904.93845
G1 X105.924 Y90.651 E905.01952
G1 X32.523 Y17.249 E911.63553
G1 X33.796 Y17.249 E911.71666
G1 X105.924 Y89.378 E918.21793
G1 X105.924 Y88.105 E918.29907
G1 X35.068 Y17.249 E924.68564
G1 X36.341 Y17.249 E924.76677
G1 X105.924 Y86.832 E931.0386
G1 X105.924 Y85.559 E931.11974
G1 X37.614 Y17.249 E937.27683
G1 X38.887 Y17.249 E937.35796
G1 X105.924 Y84.287 E943.40035
G1 X105.924 Y83.014 E943.48149
G1 X40.16 Y17.249 E949.40914
G1 X41.432 Y17.249 E949.49021
G1 X105.924 Y81.741 E955.30317
G1 X105.924 Y80.468 E955.3843
G1 X42.705 Y17.249 E961.08251
G1 X43.978 Y17.249 E961.16365
G1 X105.924 Y79.195 E966.74712
G1 X105.924 Y77.923 E966.82819
G1 X45.251 Y17.249 E972.29697
G1 X46.524 Y17.249 E972.3781
G1 X105.924 Y76.65 E977.73214
G1 X105.924 Y75.377 E977.81327
G1 X47.796 Y17.249 E983.05261
G1 X49.069 Y17.249 E983.13375
G1 X105.924 Y74.104 E988.25835
G1 X105.924 Y72.831 E988.33948
G1 X50.342 Y17.249 E993.34934
G1 X51.615 Y17.249 E993.43047
G1 X105.924 Y71.559 E998.32563
G1 X105.924 Y70.286 E998.40677
G1 X52.888 Y17.249 E1003.18719
G1 X54.16 Y17.249 E1003.26826
G1 X105.924 Y69.013 E1007.93398
G1 X105.924 Y67.74 E1008.01512
G1 X55.433 Y17.249 E1012.5661
G1 X56.706 Y17.249 E1012.64723
G1 X105.924 Y66.468 E1017.08352
G1 X105.924 Y65.195 E1017.16465
G1 X57.979 Y17.249 E1021.4862
G1 X59.252 Y17.249 E1021.56733
G1 X105.924 Y63.922 E1025.77414
G1 X105.924 Y62.649 E1025.85527
G1 X60.524 Y17.249 E1029.94738
G1 X61.797 Y17.249 E1030.02851
G1 X105.924 Y61.376 E1034.00588
G1 X105.924 Y60.104 E1034.08695
G1 X63.07 Y17.249 E1037.94962
G1 X64.343 Y17.249 E1038.03075
G1 X105.924 Y58.831 E1041.77868
G1 X105.924 Y57.558 E1041.85982
G1 X65.615 Y17.249 E1045.49305
G1 X66.888 Y17.249 E1045.57418
G1 X105.924 Y56.285 E1049.09267
G1 X105.924 Y55.012 E1049.17381
G1 X68.161 Y17.249 E1052.57756
G1 X69.434 Y17.249 E1052.65869
G1 X105.924 Y53.74 E1055.94775
G1 X105.924 Y52.467 E1056.02888
G1 X70.707 Y17.249 E1059.20319
G1 X71.979 Y17.249 E1059.28426
G1 X105.924 Y51.194 E1062.34388
G1 X105.924 Y49.921 E1062.42502
G1 X73.252 Y17.249 E1065.36989
G1 X74.525 Y17.249 E1065.45102
G1 X105.924 Y48.648 E1068.28116
G1 X105.924 Y47.376 E1068.36223
G1 X75.798 Y17.249 E1071.07767
G1 X77.071 Y17.249 E1071.1588
G1 X105.924 Y46.103 E1073.7595
G1 X105.924 Y44.83 E1073.84063
G1 X78.343 Y17.249 E1076.32663
G1 X79.616 Y17.249 E1076.40777
G1 X105.924 Y43.557 E1078.77903
G1 X105.924 Y42.284 E1078.86016
G1 X80.889 Y17.249 E1081.11668
G1 X82.162 Y17.249 E1081.19781
G1 X105.924 Y41.012 E1083.33963
G1 X105.924 Y39.739 E1083.42077
G1 X83.435 Y17.249 E1085.44785
G1 X84.707 Y17.249 E1085.52892
G1 X105.924 Y38.466 E1087.4413
G1 X105.924 Y37.193 E1087.52244
G1 X85.98 Y17.249 E1089.32008
G1 X87.253 Y17.249 E1089.40122
G1 X105.924 Y35.921 E1091.08416
G1 X105.924 Y34.648 E1091.1653
G1 X88.526 Y17.249 E1092.7335
G1 X89.799 Y17.249 E1092.81464
G1 X105.924 Y33.375 E1094.2681
G1 X105.924 Y32.102 E1094.34923
G1 X91.071 Y17.249 E1095.688
G1 X92.344 Y17.249 E1095.76914
G1 X105.924 Y30.829 E1096.99316
G1 X105.924 Y29.557 E1097.07423
G1 X93.617 Y17.249 E1098.18357
G1 X94.89 Y17.249 E1098.2647
G1 X105.924 Y28.284 E1099.25929
G1 X105.924 Y27.011 E1099.34042
G1 X96.162 Y17.249 E1100.22032
G1 X97.435 Y17.249 E1100.30145
